X: 158
T: No_81_A_Song_of_Indecision.krn
%%abc-version 2.0
%%abcx-abcm2ps-target-version 5.9.1 (29 Sep 2008)
%%abc-creator hum2abc beta
%%abcx-conversion-date 2020/08/10 18:54:57
%%gracespace 0 6 6
%%humdrum-veritas 1519731257
%%humdrum-veritas-data 3537366249
%%linebreak <none>
%%barnumbers 0
L: 1/8
M: 2/4
%%staves {1 2}
V: 1 clef=bass
V: 2 clef=bass
K: C
[V:1] [K:clef=bass][M:2/4]DD D3/D/ | 
[V:2] [K:clef=bass][M:2/4]G,,G,, G,,G,, | 
[V:1] DD/D/D2 | 
[V:2] G,,G,, G,,G,, | 
[V:1] CC C3/C/ | 
[V:2] z4 | 
[V:1] A,G,/G,/G,2 | 
[V:2] z4 | 
[V:1] G,G, G,3/G,/ | 
[V:2] z4 | 
[V:1] G,E,/E,/E,2 | 
[V:2] z4 | 
[V:1] E,E, G,3/G,/ | 
[V:2] z4 | 
[V:1] G,G,/G,/G,2 ||  
[V:2] z4 ||  
[V:1] [M:3/4]A,/A,/C CC/C/C2 ||  
[V:2] [M:3/4]z6 ||  
[V:1] [M:2/4]A,C C3/C/ | 
[V:2] [M:2/4]z4 | 
[V:1] A,G,/G,/G,2 | 
[V:2] z4 | 
[V:1] A,A, C3/C/ | 
[V:2] z4 | 
[V:1] A,G,/G,/G,2 | 
[V:2] z4 | 
[V:1] E,D, D,3/D,/ | 
[V:2] z4 | 
[V:1] D,C,/C,/C,2 | 
[V:2] z4 | 
[V:1] C,C, C,3/C,/ | 
[V:2] z4 | 
[V:1] C,C,/C,/C,2 |]  
[V:2] z4 |]  


